symbolic/16x16/panel/stock_weather-few-clouds.svg

<svg xmlns="http://www.w3.org/2000/svg" width="16" height="16" version="1.1">
 <defs>
  <style id="current-color-scheme" type="text/css">
   .ColorScheme-Text { color:#323a41; } .ColorScheme-Highlight { color:#4285f4; } .ColorScheme-NeutralText { color:#ff9800; } .ColorScheme-PositiveText { color:#4caf50; } .ColorScheme-NegativeText { color:#f44336; }
  </style>
 </defs>
 <path style="fill:currentColor" class="ColorScheme-Text" d="m 6.9999972,1e-7 v 2.085937 a 6,6 0 0 1 1,-0.08594 6,6 0 0 1 1.0000001,0.08984 V -6.9e-6 Z M 3.0507783,1.6367191 1.6367162,3.0507811 3.1132783,4.5273438 A 6,6 0 0 1 4.5292942,3.1152341 Z m 9.8984377,0 -1.476563,1.476562 a 6,6 0 0 1 1.41211,1.4160158 L 14.363278,3.0507811 Z M 7.9999972,3.0000001 A 5,5 0 0 0 2.9999973,8 5,5 0 0 0 5.2949192,12.205078 c 0.418395,-0.899362 1.246702,-1.568026 2.228516,-1.882812 C 8.1696123,9.0017204 9.4227822,8 10.999997,8 c 0.732994,0 1.393594,0.2229024 1.958984,0.5878906 A 5,5 0 0 0 13.000001,8 5,5 0 0 0 8.0000012,3.0000001 Z M -2.75e-6,7 V 9 H 2.0859352 a 6,6 0 0 1 -0.08594,-1 6,6 0 0 1 0.08984,-1 z M 13.914059,7 a 6,6 0 0 1 0.08594,1 6,6 0 0 1 -0.08984,1 h 2.089844 V 7 Z M 10.999997,9 C 9.6899972,9 8.5994503,9.8592969 8.1894503,11.029297 6.9594502,11.189297 5.9999972,12.23 5.9999972,13.5 c 0,1.38 1.1200001,2.5 2.5000001,2.5 h 4.9999997 c 1.38,0 2.5,-1.12 2.5,-2.5 0,-1.27 -0.959453,-2.310703 -2.189453,-2.470703 C 13.410544,9.8592969 12.309997,9 10.999997,9 Z m -7.8847647,2.470703 -1.478516,1.478516 1.414062,1.414062 1.476563,-1.476562 a 6,6 0 0 1 -1.412109,-1.416016 z"/>
</svg>

<svg xmlns="http://www.w3.org/2000/svg" width="16" height="16"><defs><style id="current-color-scheme" type="text/css"></style></defs><path style="fill:currentColor;color:#323a41" d="M7 0v2.086A6 6 0 0 1 8 2a6 6 0 0 1 1 .09V0zM3.05 1.637 1.638 3.05l1.476 1.476A6 6 0 0 1 4.53 3.115zm9.9 0-1.477 1.476a6 6 0 0 1 1.412 1.416l1.478-1.478zM8 3a5 5 0 0 0-5 5 5 5 0 0 0 2.295 4.205c.418-.9 1.247-1.568 2.228-1.883C8.17 9.002 9.423 8 11 8c.733 0 1.394.223 1.959.588A5 5 0 0 0 13 8a5 5 0 0 0-5-5zM0 7v2h2.086A6 6 0 0 1 2 8a6 6 0 0 1 .09-1zm13.914 0A6 6 0 0 1 14 8a6 6 0 0 1-.09 1H16V7zM11 9c-1.31 0-2.4.86-2.81 2.03C6.96 11.19 6 12.23 6 13.5A2.5 2.5 0 0 0 8.5 16h5a2.5 2.5 0 0 0 2.5-2.5c0-1.27-.96-2.31-2.19-2.47C13.41 9.86 12.31 9 11 9zm-7.885 2.47-1.478 1.48 1.414 1.413 1.476-1.476a6 6 0 0 1-1.412-1.416z"/></svg>
